en/_assets/tracker/changelogs/status-3-needs-info.svg

<svg width="176" height="20" viewBox="0 0 176 20" fill="none" xmlns="http://www.w3.org/2000/svg">
<rect width="176" height="20" rx="5" fill="#FFDB4D" fill-opacity="0.3"/>
<path fill-rule="evenodd" clip-rule="evenodd" d="M12 15.5C15.0376 15.5 17.5 13.0376 17.5 10C17.5 6.96243 15.0376 4.5 12 4.5C8.96243 4.5 6.5 6.96243 6.5 10C6.5 13.0376 8.96243 15.5 12 15.5ZM12 17C15.866 17 19 13.866 19 10C19 6.13401 15.866 3 12 3C8.13401 3 5 6.13401 5 10C5 13.866 8.13401 17 12 17ZM13.75 7.25C14.3023 7.25 14.75 7.69772 14.75 8.25V11.75C14.75 12.3023 14.3023 12.75 13.75 12.75C13.1977 12.75 12.75 12.3023 12.75 11.75V8.25C12.75 7.69772 13.1977 7.25 13.75 7.25ZM11.25 8.25C11.25 7.69772 10.8023 7.25 10.25 7.25C9.69772 7.25 9.25 7.69772 9.25 8.25V11.75C9.25 12.3023 9.69772 12.75 10.25 12.75C10.8023 12.75 11.25 12.3023 11.25 11.75V8.25Z" fill="#D17700"/>
<path d="M28.687 5.81V14H27.452V5.81H24.579V4.679H31.56V5.81H28.687ZM35.5004 14.13C34.9804 14.13 34.5297 14.0087 34.1484 13.766C33.7757 13.5233 33.4767 13.1897 33.2514 12.765V16.301H32.1074V7.253H33.1084L33.2254 8.566C33.4507 8.124 33.7541 7.773 34.1354 7.513C34.5167 7.253 34.9891 7.123 35.5524 7.123C35.9424 7.123 36.3151 7.19667 36.6704 7.344C37.0344 7.48267 37.3507 7.69933 37.6194 7.994C37.8967 8.28 38.1134 8.644 38.2694 9.086C38.4341 9.51933 38.5164 10.0307 38.5164 10.62C38.5164 11.218 38.4341 11.738 38.2694 12.18C38.1047 12.6133 37.8837 12.9773 37.6064 13.272C37.3291 13.558 37.0084 13.7747 36.6444 13.922C36.2804 14.0607 35.8991 14.13 35.5004 14.13ZM35.3314 13.103C35.9294 13.103 36.4104 12.8993 36.7744 12.492C37.1471 12.076 37.3334 11.452 37.3334 10.62C37.3334 9.80533 37.1471 9.19 36.7744 8.774C36.4104 8.34933 35.9294 8.137 35.3314 8.137C35.0367 8.137 34.7594 8.189 34.4994 8.293C34.2481 8.397 34.0271 8.553 33.8364 8.761C33.6544 8.96033 33.5071 9.216 33.3944 9.528C33.2904 9.84 33.2384 10.204 33.2384 10.62C33.2384 11.036 33.2904 11.4 33.3944 11.712C33.5071 12.024 33.6544 12.284 33.8364 12.492C34.0271 12.7 34.2481 12.856 34.4994 12.96C34.7594 13.0553 35.0367 13.103 35.3314 13.103ZM45.2713 13.428C45.176 13.4973 45.059 13.571 44.9203 13.649C44.7816 13.727 44.6126 13.805 44.4133 13.883C44.214 13.9523 43.9886 14.0087 43.7373 14.052C43.486 14.104 43.2043 14.13 42.8923 14.13C41.757 14.13 40.8946 13.8223 40.3053 13.207C39.716 12.5917 39.4213 11.7293 39.4213 10.62C39.4213 10.074 39.4993 9.58433 39.6553 9.151C39.82 8.71767 40.0453 8.35367 40.3313 8.059C40.6173 7.75567 40.9553 7.526 41.3453 7.37C41.7353 7.20533 42.16 7.123 42.6193 7.123C43.1046 7.123 43.538 7.20533 43.9193 7.37C44.3006 7.53467 44.6126 7.77733 44.8553 8.098C45.1066 8.41867 45.2756 8.81733 45.3623 9.294C45.4576 9.762 45.4576 10.308 45.3623 10.932H40.6043C40.6476 11.66 40.8643 12.206 41.2543 12.57C41.6443 12.9253 42.225 13.103 42.9963 13.103C43.5163 13.103 43.9626 13.0293 44.3353 12.882C44.708 12.7347 45.02 12.5743 45.2713 12.401V13.428ZM42.5933 8.137C42.0993 8.137 41.6746 8.28867 41.3193 8.592C40.964 8.89533 40.7386 9.35467 40.6433 9.97H44.2703C44.305 9.346 44.162 8.88667 43.8413 8.592C43.5206 8.28867 43.1046 8.137 42.5933 8.137ZM52.9814 10.62C52.9814 11.1833 52.8948 11.6817 52.7214 12.115C52.5568 12.5483 52.3271 12.9167 52.0324 13.22C51.7464 13.5147 51.4041 13.74 51.0054 13.896C50.6068 14.052 50.1734 14.13 49.7054 14.13C49.2288 14.13 48.7911 14.052 48.3924 13.896C47.9938 13.7313 47.6514 13.4843 47.3654 13.155C47.0794 12.8257 46.8541 12.4097 46.6894 11.907C46.5334 11.4043 46.4554 10.8107 46.4554 10.126C46.4554 9.56267 46.4728 9.02533 46.5074 8.514C46.5421 8.00267 46.6201 7.53033 46.7414 7.097C46.8628 6.655 47.0361 6.26067 47.2614 5.914C47.4954 5.55867 47.8074 5.264 48.1974 5.03C48.4141 4.9 48.6394 4.80467 48.8734 4.744C49.1074 4.67467 49.3414 4.62267 49.5754 4.588C49.8181 4.55333 50.0608 4.53167 50.3034 4.523C50.5461 4.51433 50.7844 4.50567 51.0184 4.497C51.3651 4.471 51.6554 4.42767 51.8894 4.367C52.1234 4.30633 52.3314 4.224 52.5134 4.12V5.16C52.3228 5.28133 52.1191 5.368 51.9024 5.42C51.6944 5.46333 51.4388 5.50233 51.1354 5.537C50.6414 5.58033 50.1864 5.615 49.7704 5.641C49.3631 5.65833 48.9904 5.75367 48.6524 5.927C48.2191 6.16967 47.9114 6.53367 47.7294 7.019C47.5561 7.49567 47.4478 8.06333 47.4044 8.722C47.8551 7.682 48.7044 7.162 49.9524 7.162C50.3771 7.162 50.7714 7.24 51.1354 7.396C51.5081 7.54333 51.8288 7.76433 52.0974 8.059C52.3748 8.35367 52.5914 8.71767 52.7474 9.151C52.9034 9.57567 52.9814 10.0653 52.9814 10.62ZM49.7054 13.103C50.0088 13.103 50.2861 13.0553 50.5374 12.96C50.7974 12.856 51.0228 12.7043 51.2134 12.505C51.4041 12.297 51.5514 12.037 51.6554 11.725C51.7594 11.413 51.8114 11.0447 51.8114 10.62C51.8114 10.1953 51.7594 9.827 51.6554 9.515C51.5514 9.203 51.4041 8.94733 51.2134 8.748C51.0228 8.54 50.7974 8.38833 50.5374 8.293C50.2861 8.189 50.0088 8.137 49.7054 8.137C49.1074 8.137 48.6091 8.33633 48.2104 8.735C47.8204 9.13367 47.6254 9.749 47.6254 10.581C47.6254 11.0143 47.6774 11.3913 47.7814 11.712C47.8854 12.024 48.0284 12.284 48.2104 12.492C48.4011 12.7 48.6221 12.856 48.8734 12.96C49.1248 13.0553 49.4021 13.103 49.7054 13.103ZM57.6011 13.922C57.4451 14.3293 57.2804 14.6847 57.1071 14.988C56.9338 15.3 56.7388 15.5643 56.5221 15.781C56.3054 15.9977 56.0628 16.158 55.7941 16.262C55.5254 16.3747 55.2178 16.431 54.8711 16.431C54.6978 16.431 54.5374 16.418 54.3901 16.392C54.2428 16.3747 54.1084 16.34 53.9871 16.288V15.183C54.0824 15.2523 54.2038 15.3043 54.3511 15.339C54.4984 15.3823 54.6588 15.404 54.8321 15.404C55.1528 15.404 55.4171 15.326 55.6251 15.17C55.8331 15.0227 56.0324 14.7843 56.2231 14.455L53.4801 7.253H54.7411L56.8861 12.947L59.0181 7.253H60.1231L57.6011 13.922ZM66.4979 13.428C66.4025 13.4973 66.2855 13.571 66.1469 13.649C66.0082 13.727 65.8392 13.805 65.6399 13.883C65.4405 13.9523 65.2152 14.0087 64.9639 14.052C64.7125 14.104 64.4309 14.13 64.1189 14.13C62.9835 14.13 62.1212 13.8223 61.5319 13.207C60.9425 12.5917 60.6479 11.7293 60.6479 10.62C60.6479 10.074 60.7259 9.58433 60.8819 9.151C61.0465 8.71767 61.2719 8.35367 61.5579 8.059C61.8439 7.75567 62.1819 7.526 62.5719 7.37C62.9619 7.20533 63.3865 7.123 63.8459 7.123C64.3312 7.123 64.7645 7.20533 65.1459 7.37C65.5272 7.53467 65.8392 7.77733 66.0819 8.098C66.3332 8.41867 66.5022 8.81733 66.5889 9.294C66.6842 9.762 66.6842 10.308 66.5889 10.932H61.8309C61.8742 11.66 62.0909 12.206 62.4809 12.57C62.8709 12.9253 63.4515 13.103 64.2229 13.103C64.7429 13.103 65.1892 13.0293 65.5619 12.882C65.9345 12.7347 66.2465 12.5743 66.4979 12.401V13.428ZM63.8199 8.137C63.3259 8.137 62.9012 8.28867 62.5459 8.592C62.1905 8.89533 61.9652 9.35467 61.8699 9.97H65.4969C65.5315 9.346 65.3885 8.88667 65.0679 8.592C64.7472 8.28867 64.3312 8.137 63.8199 8.137ZM70.7775 8.228V14H69.6335V8.228H67.5145V7.253H72.9355V8.228H70.7775ZM76.9774 14.13C76.4574 14.13 75.9851 14.052 75.5604 13.896C75.1444 13.7313 74.7891 13.5017 74.4944 13.207C74.1997 12.9037 73.9744 12.5353 73.8184 12.102C73.6624 11.6687 73.5844 11.1747 73.5844 10.62C73.5844 10.074 73.6624 9.58433 73.8184 9.151C73.9831 8.71767 74.2127 8.35367 74.5074 8.059C74.8021 7.75567 75.1617 7.526 75.5864 7.37C76.0111 7.20533 76.4921 7.123 77.0294 7.123C77.4454 7.123 77.8267 7.17067 78.1734 7.266C78.5201 7.35267 78.8061 7.48267 79.0314 7.656V8.683C78.7541 8.501 78.4421 8.36667 78.0954 8.28C77.7574 8.18467 77.4064 8.137 77.0424 8.137C76.2537 8.137 75.6731 8.34067 75.3004 8.748C74.9364 9.15533 74.7544 9.77933 74.7544 10.62C74.7544 11.4607 74.9321 12.0847 75.2874 12.492C75.6427 12.8993 76.2061 13.103 76.9774 13.103C77.3847 13.103 77.7574 13.0553 78.0954 12.96C78.4421 12.856 78.7541 12.726 79.0314 12.57V13.597C78.7887 13.7443 78.4941 13.87 78.1474 13.974C77.8094 14.078 77.4194 14.13 76.9774 14.13ZM80.5654 9.437C80.5654 9.05567 80.6347 8.73067 80.7734 8.462C80.9121 8.18467 81.1071 7.95933 81.3584 7.786C81.6097 7.604 81.9087 7.46967 82.2554 7.383C82.6021 7.29633 82.9791 7.253 83.3864 7.253H85.5574V14H84.4134V11.556H83.1784L81.4494 14H80.0844L82.0344 11.27C81.5664 11.1313 81.2024 10.919 80.9424 10.633C80.6911 10.347 80.5654 9.94833 80.5654 9.437ZM84.4134 10.581V8.228H83.3864C82.9011 8.228 82.5024 8.319 82.1904 8.501C81.8784 8.683 81.7224 8.97767 81.7224 9.385C81.7224 9.80967 81.8611 10.1173 82.1384 10.308C82.4157 10.49 82.8101 10.581 83.3214 10.581H84.4134ZM91.434 12.44L95.035 7.253H96.192V14H95.048V8.826L91.46 14H90.29V7.253H91.434V12.44ZM102.467 11.01H99.2035V14H98.0595V7.253H99.2035V10.035H102.467V7.253H103.611V14H102.467V11.01ZM113.39 10.62C113.39 11.1833 113.295 11.6773 113.104 12.102C112.914 12.5267 112.654 12.8863 112.324 13.181C112.004 13.4757 111.622 13.701 111.18 13.857C110.738 14.0043 110.27 14.0867 109.776 14.104V16.301H108.632V14.104C108.121 14.0867 107.644 14 107.202 13.844C106.769 13.688 106.388 13.467 106.058 13.181C105.729 12.8863 105.469 12.5267 105.278 12.102C105.096 11.6773 105.005 11.1833 105.005 10.62C105.005 10.0653 105.101 9.57567 105.291 9.151C105.482 8.71767 105.742 8.358 106.071 8.072C106.401 7.77733 106.782 7.55633 107.215 7.409C107.657 7.253 108.13 7.16633 108.632 7.149V4.549H109.776V7.149C110.279 7.16633 110.747 7.253 111.18 7.409C111.622 7.565 112.004 7.79033 112.324 8.085C112.654 8.371 112.914 8.72633 113.104 9.151C113.295 9.57567 113.39 10.0653 113.39 10.62ZM112.22 10.62C112.22 10.204 112.155 9.84433 112.025 9.541C111.904 9.23767 111.731 8.98633 111.505 8.787C111.289 8.58767 111.033 8.436 110.738 8.332C110.444 8.21933 110.123 8.15433 109.776 8.137V13.103C110.123 13.0857 110.444 13.025 110.738 12.921C111.042 12.8083 111.302 12.6523 111.518 12.453C111.735 12.2537 111.904 12.0023 112.025 11.699C112.155 11.3957 112.22 11.036 112.22 10.62ZM106.175 10.62C106.175 11.036 106.236 11.3957 106.357 11.699C106.487 12.0023 106.661 12.258 106.877 12.466C107.103 12.6653 107.363 12.817 107.657 12.921C107.961 13.025 108.286 13.0857 108.632 13.103V8.137C108.277 8.15433 107.948 8.21933 107.644 8.332C107.35 8.436 107.094 8.592 106.877 8.8C106.661 8.99933 106.487 9.25067 106.357 9.554C106.236 9.85733 106.175 10.2127 106.175 10.62ZM117.561 14.13C117.102 14.13 116.673 14.052 116.274 13.896C115.875 13.74 115.529 13.5147 115.234 13.22C114.948 12.9167 114.723 12.5483 114.558 12.115C114.393 11.6817 114.311 11.1833 114.311 10.62C114.311 10.0653 114.393 9.57133 114.558 9.138C114.723 8.696 114.948 8.32767 115.234 8.033C115.529 7.73833 115.875 7.513 116.274 7.357C116.673 7.201 117.102 7.123 117.561 7.123C118.029 7.123 118.462 7.201 118.861 7.357C119.26 7.513 119.602 7.73833 119.888 8.033C120.183 8.32767 120.412 8.696 120.577 9.138C120.75 9.57133 120.837 10.0653 120.837 10.62C120.837 11.1833 120.75 11.6817 120.577 12.115C120.412 12.5483 120.183 12.9167 119.888 13.22C119.602 13.5147 119.26 13.74 118.861 13.896C118.462 14.052 118.029 14.13 117.561 14.13ZM117.561 13.103C117.864 13.103 118.142 13.0553 118.393 12.96C118.653 12.856 118.878 12.7043 119.069 12.505C119.26 12.297 119.407 12.037 119.511 11.725C119.615 11.413 119.667 11.0447 119.667 10.62C119.667 10.1953 119.615 9.827 119.511 9.515C119.407 9.203 119.26 8.94733 119.069 8.748C118.878 8.54 118.653 8.38833 118.393 8.293C118.142 8.189 117.864 8.137 117.561 8.137C117.258 8.137 116.98 8.189 116.729 8.293C116.478 8.38833 116.257 8.54 116.066 8.748C115.884 8.94733 115.741 9.203 115.637 9.515C115.533 9.827 115.481 10.1953 115.481 10.62C115.481 11.0447 115.533 11.413 115.637 11.725C115.741 12.037 115.884 12.297 116.066 12.505C116.257 12.7043 116.478 12.856 116.729 12.96C116.98 13.0553 117.258 13.103 117.561 13.103ZM125.624 14.13C125.104 14.13 124.654 14.0087 124.272 13.766C123.9 13.5233 123.601 13.1897 123.375 12.765V16.301H122.231V7.253H123.232L123.349 8.566C123.575 8.124 123.878 7.773 124.259 7.513C124.641 7.253 125.113 7.123 125.676 7.123C126.066 7.123 126.439 7.19667 126.794 7.344C127.158 7.48267 127.475 7.69933 127.743 7.994C128.021 8.28 128.237 8.644 128.393 9.086C128.558 9.51933 128.64 10.0307 128.64 10.62C128.64 11.218 128.558 11.738 128.393 12.18C128.229 12.6133 128.008 12.9773 127.73 13.272C127.453 13.558 127.132 13.7747 126.768 13.922C126.404 14.0607 126.023 14.13 125.624 14.13ZM125.455 13.103C126.053 13.103 126.534 12.8993 126.898 12.492C127.271 12.076 127.457 11.452 127.457 10.62C127.457 9.80533 127.271 9.19 126.898 8.774C126.534 8.34933 126.053 8.137 125.455 8.137C125.161 8.137 124.883 8.189 124.623 8.293C124.372 8.397 124.151 8.553 123.96 8.761C123.778 8.96033 123.631 9.216 123.518 9.528C123.414 9.84 123.362 10.204 123.362 10.62C123.362 11.036 123.414 11.4 123.518 11.712C123.631 12.024 123.778 12.284 123.96 12.492C124.151 12.7 124.372 12.856 124.623 12.96C124.883 13.0553 125.161 13.103 125.455 13.103ZM136.461 8.579L134.173 13.246H133.263L131.105 8.553V14H130.026V7.253H131.729L133.796 11.777L136.006 7.253H137.592V14H136.461V8.579ZM143.411 12.713C143.333 12.869 143.233 13.0337 143.112 13.207C142.991 13.3717 142.839 13.5233 142.657 13.662C142.475 13.8007 142.258 13.9133 142.007 14C141.764 14.0867 141.478 14.13 141.149 14.13C140.542 14.13 140.053 13.961 139.68 13.623C139.307 13.2763 139.121 12.7823 139.121 12.141C139.121 11.4043 139.377 10.8627 139.888 10.516C140.408 10.1693 141.145 9.996 142.098 9.996H143.359V9.437C143.359 8.969 143.238 8.63533 142.995 8.436C142.752 8.23667 142.336 8.137 141.747 8.137C141.331 8.137 140.937 8.20633 140.564 8.345C140.191 8.475 139.858 8.62667 139.563 8.8V7.773C139.806 7.62567 140.131 7.48267 140.538 7.344C140.954 7.19667 141.409 7.123 141.903 7.123C142.752 7.123 143.398 7.30067 143.84 7.656C144.282 8.00267 144.503 8.54433 144.503 9.281V12.908C144.503 12.986 144.503 13.077 144.503 13.181C144.512 13.2763 144.516 13.376 144.516 13.48C144.525 13.584 144.533 13.6837 144.542 13.779C144.551 13.8657 144.559 13.9393 144.568 14H143.528C143.502 13.8787 143.476 13.7097 143.45 13.493C143.433 13.2677 143.424 13.0727 143.424 12.908L143.411 12.713ZM141.396 13.103C141.751 13.103 142.055 13.0293 142.306 12.882C142.557 12.7347 142.761 12.5657 142.917 12.375C143.073 12.1757 143.186 11.985 143.255 11.803C143.324 11.6123 143.359 11.478 143.359 11.4V10.906H142.215C141.53 10.906 141.032 11.0057 140.72 11.205C140.417 11.3957 140.265 11.686 140.265 12.076C140.265 12.3793 140.356 12.6263 140.538 12.817C140.72 13.0077 141.006 13.103 141.396 13.103ZM151.801 14H146.302V7.253H147.446V13.025H150.761V7.253H151.905V13.025H152.919V15.924H151.944L151.801 14ZM155.253 12.44L158.854 7.253H160.011V14H158.867V8.826L155.279 14H154.109V7.253H155.253V12.44ZM161.879 9.437C161.879 9.05567 161.948 8.73067 162.087 8.462C162.226 8.18467 162.421 7.95933 162.672 7.786C162.923 7.604 163.222 7.46967 163.569 7.383C163.916 7.29633 164.293 7.253 164.7 7.253H166.871V14H165.727V11.556H164.492L162.763 14H161.398L163.348 11.27C162.88 11.1313 162.516 10.919 162.256 10.633C162.005 10.347 161.879 9.94833 161.879 9.437ZM165.727 10.581V8.228H164.7C164.215 8.228 163.816 8.319 163.504 8.501C163.192 8.683 163.036 8.97767 163.036 9.385C163.036 9.80967 163.175 10.1173 163.452 10.308C163.729 10.49 164.124 10.581 164.635 10.581H165.727Z" fill="#D17700"/>
</svg>

<svg xmlns="http://www.w3.org/2000/svg" width="176" height="20" fill="none"><rect width="176" height="20" fill="#FFDB4D" fill-opacity=".3" rx="5"/><path fill="#D17700" fill-rule="evenodd" d="M12 15.5a5.5 5.5 0 1 0 0-11 5.5 5.5 0 0 0 0 11Zm0 1.5a7 7 0 1 0 0-14 7 7 0 0 0 0 14Zm1.75-9.75a1 1 0 0 1 1 1v3.5a1 1 0 1 1-2 0v-3.5a1 1 0 0 1 1-1Zm-2.5 1a1 1 0 1 0-2 0v3.5a1 1 0 1 0 2 0v-3.5Z" clip-rule="evenodd"/><path fill="#D17700" d="M28.687 5.81V14h-1.235V5.81h-2.873V4.679h6.981V5.81h-2.873Zm6.813 8.32c-.52 0-.97-.121-1.352-.364a2.647 2.647 0 0 1-.897-1.001v3.536h-1.144V7.253h1.001l.117 1.313c.226-.442.53-.793.91-1.053.382-.26.854-.39 1.417-.39.39 0 .763.074 1.118.221.364.139.68.355.95.65.277.286.493.65.65 1.092.164.433.246.945.246 1.534 0 .598-.082 1.118-.247 1.56a3.262 3.262 0 0 1-.663 1.092 2.78 2.78 0 0 1-.962.65 3.185 3.185 0 0 1-1.144.208Zm-.169-1.027c.598 0 1.08-.204 1.443-.611.373-.416.56-1.04.56-1.872 0-.815-.187-1.43-.56-1.846-.364-.425-.845-.637-1.443-.637a2.22 2.22 0 0 0-.832.156c-.25.104-.472.26-.663.468-.182.2-.329.455-.442.767a3.457 3.457 0 0 0-.156 1.092c0 .416.052.78.156 1.092.113.312.26.572.442.78.191.208.412.364.663.468.26.095.538.143.832.143Zm9.94.325c-.095.07-.212.143-.35.221a4.075 4.075 0 0 1-.508.234c-.199.07-.424.126-.676.169a4.185 4.185 0 0 1-.845.078c-1.135 0-1.997-.308-2.587-.923-.589-.615-.884-1.478-.884-2.587 0-.546.078-1.036.234-1.469.165-.433.39-.797.676-1.092a2.812 2.812 0 0 1 1.014-.689c.39-.165.815-.247 1.274-.247.486 0 .919.082 1.3.247.382.165.694.407.936.728.252.32.42.72.507 1.196.096.468.096 1.014 0 1.638h-4.758c.044.728.26 1.274.65 1.638.39.355.971.533 1.742.533.52 0 .967-.074 1.34-.221.372-.147.684-.308.935-.481v1.027Zm-2.678-5.291c-.494 0-.918.152-1.274.455-.355.303-.58.763-.676 1.378h3.627c.035-.624-.108-1.083-.429-1.378-.32-.303-.736-.455-1.248-.455Zm10.388 2.483c0 .563-.086 1.062-.26 1.495a3.186 3.186 0 0 1-.689 1.105c-.286.295-.628.52-1.027.676a3.536 3.536 0 0 1-1.3.234c-.476 0-.914-.078-1.313-.234a2.719 2.719 0 0 1-1.027-.741c-.286-.33-.51-.745-.676-1.248-.156-.503-.234-1.096-.234-1.781 0-.563.018-1.1.052-1.612.035-.511.113-.984.234-1.417.122-.442.295-.836.52-1.183a2.865 2.865 0 0 1 1.612-1.17 5.1 5.1 0 0 1 .702-.156c.243-.035.486-.056.728-.065l.715-.026c.347-.026.637-.07.871-.13.234-.06.442-.143.624-.247v1.04a2 2 0 0 1-.61.26 8.678 8.678 0 0 1-.768.117c-.494.043-.949.078-1.365.104-.407.017-.78.113-1.118.286a2.02 2.02 0 0 0-.923 1.092c-.173.477-.281 1.044-.325 1.703.451-1.04 1.3-1.56 2.548-1.56.425 0 .82.078 1.183.234.373.147.694.368.962.663.278.295.494.659.65 1.092.156.425.234.914.234 1.469Zm-3.276 2.483c.304 0 .581-.048.832-.143a1.9 1.9 0 0 0 .676-.455c.191-.208.338-.468.442-.78.104-.312.156-.68.156-1.105 0-.425-.052-.793-.156-1.105a2.009 2.009 0 0 0-.442-.767 1.699 1.699 0 0 0-.676-.455 2.155 2.155 0 0 0-.832-.156c-.598 0-1.096.2-1.495.598-.39.399-.585 1.014-.585 1.846 0 .433.052.81.156 1.131.104.312.247.572.43.78.19.208.411.364.662.468.252.095.53.143.832.143Zm7.896.819a7.73 7.73 0 0 1-.494 1.066 3.55 3.55 0 0 1-.585.793 2.09 2.09 0 0 1-.728.481 2.368 2.368 0 0 1-.923.169c-.173 0-.334-.013-.48-.039a1.446 1.446 0 0 1-.404-.104v-1.105c.095.07.217.121.364.156a1.7 1.7 0 0 0 .481.065c.32 0 .585-.078.793-.234.208-.147.407-.386.598-.715L53.48 7.253h1.261l2.145 5.694 2.132-5.694h1.105l-2.522 6.669Zm8.897-.494a3.646 3.646 0 0 1-.858.455c-.2.07-.425.126-.676.169a4.186 4.186 0 0 1-.845.078c-1.136 0-1.998-.308-2.587-.923-.59-.615-.884-1.478-.884-2.587 0-.546.078-1.036.234-1.469a3.15 3.15 0 0 1 .676-1.092 2.812 2.812 0 0 1 1.014-.689c.39-.165.814-.247 1.274-.247.485 0 .919.082 1.3.247.381.165.693.407.936.728.251.32.42.72.507 1.196.095.468.095 1.014 0 1.638H61.83c.043.728.26 1.274.65 1.638.39.355.97.533 1.742.533.52 0 .966-.074 1.339-.221.373-.147.684-.308.936-.481v1.027ZM63.82 8.137c-.494 0-.919.152-1.274.455-.355.303-.58.763-.676 1.378h3.627c.034-.624-.109-1.083-.43-1.378-.32-.303-.736-.455-1.247-.455Zm6.958.091V14h-1.145V8.228h-2.118v-.975h5.42v.975h-2.157Zm6.2 5.902c-.52 0-.993-.078-1.418-.234a3.1 3.1 0 0 1-1.066-.689 3.038 3.038 0 0 1-.676-1.105 4.36 4.36 0 0 1-.234-1.482c0-.546.078-1.036.234-1.469.165-.433.395-.797.69-1.092a2.85 2.85 0 0 1 1.078-.689 3.967 3.967 0 0 1 1.443-.247c.416 0 .798.048 1.144.143.347.087.633.217.858.39v1.027a3.03 3.03 0 0 0-.936-.403 3.86 3.86 0 0 0-1.053-.143c-.788 0-1.369.204-1.742.611-.364.407-.546 1.031-.546 1.872 0 .84.178 1.465.533 1.872.356.407.92.611 1.69.611.408 0 .78-.048 1.118-.143.347-.104.66-.234.936-.39v1.027a3.984 3.984 0 0 1-2.054.533Zm3.587-4.693c0-.381.07-.706.208-.975.14-.277.334-.503.585-.676.252-.182.55-.316.897-.403.347-.087.724-.13 1.131-.13h2.171V14h-1.144v-2.444h-1.235L81.45 14h-1.365l1.95-2.73c-.468-.139-.832-.351-1.092-.637-.25-.286-.377-.685-.377-1.196Zm3.848 1.144V8.228h-1.027c-.485 0-.884.091-1.196.273-.312.182-.468.477-.468.884 0 .425.14.732.416.923.278.182.672.273 1.183.273h1.092Zm7.021 1.859 3.601-5.187h1.157V14h-1.144V8.826L91.46 14h-1.17V7.253h1.144v5.187Zm11.033-1.43h-3.263V14H98.06V7.253h1.144v2.782h3.263V7.253h1.144V14h-1.144v-2.99Zm10.923-.39c0 .563-.095 1.057-.286 1.482-.19.425-.45.784-.78 1.079-.32.295-.702.52-1.144.676-.442.147-.91.23-1.404.247v2.197h-1.144v-2.197a4.758 4.758 0 0 1-1.43-.26 3.58 3.58 0 0 1-1.144-.663 3.178 3.178 0 0 1-.78-1.079c-.182-.425-.273-.919-.273-1.482 0-.555.096-1.044.286-1.469.191-.433.451-.793.78-1.079.33-.295.711-.516 1.144-.663a4.725 4.725 0 0 1 1.417-.26v-2.6h1.144v2.6c.503.017.971.104 1.404.26.442.156.824.381 1.144.676.33.286.59.641.78 1.066.191.425.286.914.286 1.469Zm-1.17 0c0-.416-.065-.776-.195-1.079a1.949 1.949 0 0 0-.52-.754 2.19 2.19 0 0 0-.767-.455 3.107 3.107 0 0 0-.962-.195v4.966c.347-.017.668-.078.962-.182.304-.113.564-.269.78-.468.217-.2.386-.45.507-.754.13-.303.195-.663.195-1.079Zm-6.045 0c0 .416.061.776.182 1.079.13.303.304.559.52.767.226.2.486.351.78.455.304.104.629.165.975.182V8.137a3.287 3.287 0 0 0-.988.195 2.176 2.176 0 0 0-1.287 1.222 2.867 2.867 0 0 0-.182 1.066Zm11.386 3.51c-.459 0-.888-.078-1.287-.234a2.997 2.997 0 0 1-1.04-.676 3.3 3.3 0 0 1-.676-1.105c-.165-.433-.247-.932-.247-1.495 0-.555.082-1.049.247-1.482.165-.442.39-.81.676-1.105.295-.295.641-.52 1.04-.676a3.503 3.503 0 0 1 1.287-.234c.468 0 .901.078 1.3.234.399.156.741.381 1.027.676.295.295.524.663.689 1.105.173.433.26.927.26 1.482 0 .563-.087 1.062-.26 1.495a3.188 3.188 0 0 1-.689 1.105c-.286.295-.628.52-1.027.676a3.538 3.538 0 0 1-1.3.234Zm0-1.027c.303 0 .581-.048.832-.143.26-.104.485-.256.676-.455a2.13 2.13 0 0 0 .442-.78c.104-.312.156-.68.156-1.105 0-.425-.052-.793-.156-1.105a2.005 2.005 0 0 0-.442-.767 1.702 1.702 0 0 0-.676-.455 2.156 2.156 0 0 0-.832-.156c-.303 0-.581.052-.832.156a1.723 1.723 0 0 0-.663.455 2.11 2.11 0 0 0-.429.767c-.104.312-.156.68-.156 1.105 0 .425.052.793.156 1.105.104.312.247.572.429.78.191.2.412.351.663.455.251.095.529.143.832.143Zm8.063 1.027c-.52 0-.97-.121-1.352-.364a2.658 2.658 0 0 1-.897-1.001v3.536h-1.144V7.253h1.001l.117 1.313c.226-.442.529-.793.91-1.053.382-.26.854-.39 1.417-.39.39 0 .763.074 1.118.221.364.139.681.355.949.65.278.286.494.65.65 1.092.165.433.247.945.247 1.534 0 .598-.082 1.118-.247 1.56a3.24 3.24 0 0 1-.663 1.092 2.777 2.777 0 0 1-.962.65 3.184 3.184 0 0 1-1.144.208Zm-.169-1.027c.598 0 1.079-.204 1.443-.611.373-.416.559-1.04.559-1.872 0-.815-.186-1.43-.559-1.846-.364-.425-.845-.637-1.443-.637-.294 0-.572.052-.832.156-.251.104-.472.26-.663.468-.182.2-.329.455-.442.767a3.457 3.457 0 0 0-.156 1.092c0 .416.052.78.156 1.092.113.312.26.572.442.78.191.208.412.364.663.468.26.095.538.143.832.143Zm11.006-4.524-2.288 4.667h-.91l-2.158-4.693V14h-1.079V7.253h1.703l2.067 4.524 2.21-4.524h1.586V14h-1.131V8.579Zm6.95 4.134a3.99 3.99 0 0 1-.299.494 2.253 2.253 0 0 1-1.105.793c-.243.087-.529.13-.858.13-.607 0-1.096-.169-1.469-.507-.373-.347-.559-.84-.559-1.482 0-.737.256-1.278.767-1.625.52-.347 1.257-.52 2.21-.52h1.261v-.559c0-.468-.121-.802-.364-1.001-.243-.2-.659-.299-1.248-.299-.416 0-.81.07-1.183.208-.373.13-.706.282-1.001.455V7.773c.243-.147.568-.29.975-.429a4.063 4.063 0 0 1 1.365-.221c.849 0 1.495.178 1.937.533.442.347.663.888.663 1.625v3.9c.009.095.013.195.013.299l.026.299c.009.087.017.16.026.221h-1.04a5.934 5.934 0 0 1-.078-.507 7.95 7.95 0 0 1-.026-.585l-.013-.195Zm-2.015.39c.355 0 .659-.074.91-.221.251-.147.455-.316.611-.507.156-.2.269-.39.338-.572.069-.19.104-.325.104-.403v-.494h-1.144c-.685 0-1.183.1-1.495.299-.303.19-.455.481-.455.871 0 .303.091.55.273.741.182.19.468.286.858.286Zm10.405.897h-5.499V7.253h1.144v5.772h3.315V7.253h1.144v5.772h1.014v2.899h-.975L151.801 14Zm3.452-1.56 3.601-5.187h1.157V14h-1.144V8.826L155.279 14h-1.17V7.253h1.144v5.187Zm6.626-3.003c0-.381.069-.706.208-.975.139-.277.334-.503.585-.676.251-.182.55-.316.897-.403a4.66 4.66 0 0 1 1.131-.13h2.171V14h-1.144v-2.444h-1.235L162.763 14h-1.365l1.95-2.73c-.468-.139-.832-.351-1.092-.637-.251-.286-.377-.685-.377-1.196Zm3.848 1.144V8.228H164.7c-.485 0-.884.091-1.196.273-.312.182-.468.477-.468.884 0 .425.139.732.416.923.277.182.672.273 1.183.273h1.092Z"/></svg>
